!!!OTL: 582. Der Landsturm.
!!!COM: A. Gersbach
!!!ARE: Europa, Mitteleuropa, Deutschland
!!!SCT: B0582
!!!TXL: @@DE
!!!YEM: Copyright 1995, estate of Helmut Schaffrath.
**kern	**text
*ICvox	*
*Ivox	*
*clefG2	*
*M4/4	*
*met(c)	*
*k[f#c#]	*
*D:	*
!LO:TX:a:t=Schnell und feurig.	!
{4a	Der
=1	=1
2dd	Land-
4a	-ſturm!
4a	Der
=2	=2
2dd	Land-
4a}	-ſturm!
{4a	Wer
=3	=3
4b	hat
4a	das
4.g	ſchö-
8a	-ne
=4	=4
4f#	Wort
4e	er-
4d}	-dacht?
{8gL	Das
8f#J	.
=5	=5
8eL	Wort
8f#J	.
8gL	das
8aJ	.
4.b	don-
8a	-nert,
=6	=6
8gL	blitʒt
8aJ	.
8bL	und
8cc#J	.
4.dd}	kracht,
{8dd	daß
=7	=7
4cc#	ei-
4b	-nem
4.ee	'sHerʒ
8dd	im
=8	=8
4cc#	Lei-
4b	-be
4a}	lacht,
{4a	wenn
=9	=9
4b	ganʒ
8gL	ein
8eJ	.
4a	Land
8f#L	im
8dJ	.
=10	=10
8eL	Sturm
8f#J	.
8gL	er-
8aJ	.
4f#}	-wacht.
{4a	Wer
=11	=11
4b	hat
4cc#	den
4dd	Landſturm
4b	.
=12	=12
2a	auf-
2a	-ge-
=13	=13
2d	-bracht?
4r}	.
{4a	Der
=14	=14
2dd	Land-
4a	-ſturm!
4a	Der
=15	=15
2dd	Land-
4a}	-ſturm!
{4a	Wer
=16	=16
4b	hat
4a	das
4.g	ſchö-
8a	-ne
=17	=17
4f#	Wort
4e	er-
4d}	-dacht?
{8gL	Das
8f#J	.
=18	=18
8eL	Wort
8f#J	.
8gL	das
8aJ	.
4.b	don-
8a	-nert,
=19	=19
8gL	blitʒt
8aJ	.
8bL	und
8cc#J	.
4.dd}	kracht,
{8dd	daß
=20	=20
4cc#	ei-
4b	-nem
4.ee	'sHerʒ
8dd	im
=21	=21
4cc#	Lei-
4b	-be
4a}	lacht,
{4a	wenn
=22	=22
4b	ganʒ
8gL	ein
8eJ	.
4a	Land
8f#L	im
8dJ	.
=23	=23
8eL	Sturm
8f#J	.
8gL	er-
8aJ	.
4f#}	-wacht.
{4a	Wer
=24	=24
4b	hat
4cc#	den
4dd	Landſturm
4b	.
=25	=25
2a	auf-
2a	-ge-
=26	=26
2d	-bracht?
4r}	.
=||;	=||;
!LO:TX:a:t=Schluß:	!
{4a	Der
=27	=27
2dd	Land-
4d	-ſturm!
4a	der
=28	=28
2dd	Land-
4d}	-ſturm!
==	==
!!!AGN: Staende -, Soldaten - Lied
!!!GTL: Soldatenlieder
!!!ONB: ESAC (Essen Associative Code) Database: BOEHME
!!!AMT: simple quadruple
!!!AIN: vox
!!!EED: Helmut Schaffrath
!!!EEV: 1.0
!!Mel. v. Anton Gersbach.
!!@@COMMENT:"Gedicht von Fr. Rückert um 1814-15. Mel. um 1830 von Anton Gersbach."
!!@@END:
!!!Text: Fr. Rückert
!!!URL-scan: https://archive.org/details/BoehmeVtLieder1895/page/n461/mode/2up
!!!ENC: Anna Maria Matuszewska
!!!EEV: 2024/12/07
*-	*-
